static/assets/head_icons_png/man/bizi/1035269.svg

<svg xmlns="http://www.w3.org/2000/svg" width="10" height="10"><g transform="translate(4.55 4.85)"><radialGradient id="a" gradientUnits="userSpaceOnUse" gradientTransform="rotate(2.106 429.17 7.49) scale(.01362)" spreadMethod="pad" cx="0" cy="0" r="819.2" fx="0" fy="0"><stop offset="0" stop-color="#fbbd9d"/><stop offset="1" stop-color="#fedec1"/></radialGradient><path d="M2.6 1.1Q1.15 2.35.7 4.2l-.15.6-.1.05q.1-.1-.2-.05h-.2l-.25-.9q-.3-.85-.85-1.6l-.75-.9-.05-.05q.4-1.05.4-1.8.05-1.35-.05-1-1.55-2.1-2.4-2.1Q-2.75-4.8.3-4.85q3-.05 4.05.65L3.1-2.85q-.9 1.7-.85 2.2l.45 1.7-.1.05" fill="url(#a)"/><radialGradient id="b" gradientUnits="userSpaceOnUse" gradientTransform="rotate(6.577 -67.027 99.408) scale(.01003)" spreadMethod="pad" cx="0" cy="0" r="819.2" fx="0" fy="0"><stop offset="0" stop-color="#fbbd9d"/><stop offset="1" stop-color="#fedec1"/></radialGradient><path d="M.55 4.8l.15-.6q.45-1.85 1.9-3.1l.1-.05.65 2.15q.35 1.4-.8 1.35l-2 .25" fill="url(#b)"/><radialGradient id="c" gradientUnits="userSpaceOnUse" gradientTransform="rotate(6.537 -88.383 -92.187) scale(.01049)" spreadMethod="pad" cx="0" cy="0" r="819.2" fx="0" fy="0"><stop offset="0" stop-color="#fbbd9d"/><stop offset="1" stop-color="#fedec1"/></radialGradient><path d="M-.75 4.6h-1.4q-.45-.1-.45-1.5l.75-1.75.05.05.75.9q.55.75.85 1.6l.25.9-.8-.2" fill="url(#c)"/><radialGradient id="d" gradientUnits="userSpaceOnUse" gradientTransform="matrix(.00954 0 0 .01169 -.75 -2)" spreadMethod="pad" cx="0" cy="0" r="819.2" fx="0" fy="0"><stop offset="0" stop-color="#f5a686" stop-opacity=".412"/><stop offset="1" stop-color="#fac8ab" stop-opacity=".369"/></radialGradient><path d="M3.15-3.85l1.4-.6.05.05q-.6.55-.85 1.1l-.25.25q-.4.05-.75 1.1l-.2.6-.1.35-.1.35v.55l.6 1.5.55 1.95-.25.75v-.05Q3.35 3 2.9 2.8l-1-.1q-.6.15-.65-1.45l-.1-2.5q-.05-.9.05-1.2l.7-1.35.9-.25-.2.4.55-.2" fill="url(#d)"/><radialGradient id="e" gradientUnits="userSpaceOnUse" gradientTransform="matrix(.01018 0 0 .00394 .75 4.7)" spreadMethod="pad" cx="0" cy="0" r="819.2" fx="0" fy="0"><stop offset="0" stop-color="#f58b69"/><stop offset="1" stop-color="#ffdec2" stop-opacity="0"/></radialGradient><path d="M-2.2 4.15h-.05q.55-.35 1.15-.3l1.2.35L1.25 4l1.05-.3.6.15q.3.1.3.45 0 .3-.75.35H1.4l-.75.25-1.3-.2-1.05.05-.65-.1h-.05v-.2l.05-.15.05-.1.1-.05" fill="url(#e)"/><radialGradient id="f" gradientUnits="userSpaceOnUse" gradientTransform="matrix(.0039 0 0 .01009 -2.15 -1.65)" spreadMethod="pad" cx="0" cy="0" r="819.2" fx="0" fy="0"><stop offset="0" stop-color="#f5a686" stop-opacity=".773"/><stop offset="1" stop-color="#fcd1b5" stop-opacity=".216"/></radialGradient><path d="M-2.3 4.2l-.05.1-.05.15v.2q-.4-.35-.35-1 0-.75.4-1.3l.55-1.6.25-1.1q.05-1-.05-1.05-.5-.9-1.3-1.6-.85-.7-1.65-.65l.7-.05.3-.05.25.05.85-.05 1.25.65.5.65.1 1.7-.1 2.3Q-.75 2.6-.95 2.8l-.8.2q-.7.15-.65.7l.15.45-.05.05" fill="url(#f)"/><path d="M-1.15 4.1l.65.2.3.4-.75-.2q-.5.15-.55-.15 0-.25.35-.25m3.7.1q-.05.3-.55.2l-.8.15.35-.4q.25-.2.65-.2.35 0 .35.25" fill="#905045"/><radialGradient id="g" gradientUnits="userSpaceOnUse" gradientTransform="matrix(.001 .0001 -.0001 .0008 .35 3.2)" spreadMethod="pad" cx="0" cy="0" r="819.2" fx="0" fy="0"><stop offset=".314" stop-color="#fff" stop-opacity=".663"/><stop offset="1" stop-color="#fff" stop-opacity="0"/></radialGradient><path d="M-.15 2.8l.6-.05.5.15.2.4-.25.3-.6.1-.55-.2-.2-.35.3-.35" fill="url(#g)"/><radialGradient id="h" gradientUnits="userSpaceOnUse" gradientTransform="matrix(.00069 .00002 .0001 .00262 .45 .25)" spreadMethod="pad" cx="0" cy="0" r="819.2" fx="0" fy="0"><stop offset=".314" stop-color="#fff" stop-opacity=".431"/><stop offset="1" stop-color="#fff" stop-opacity="0"/></radialGradient><path d="M.65-1.25l.2 1.5-.1 1.55-.05.3.05.05-.2.25-.25-.3-.05-.05-.1-.3Q0 1.1 0 .25L.05-1.3l.25-.55.35.6" fill="url(#h)"/></g></svg>

<?xml version="1.0" encoding="utf-8"?>
<svg version="1.1" id="Layer_1"
xmlns="http://www.w3.org/2000/svg"
xmlns:xlink="http://www.w3.org/1999/xlink"
xmlns:author="http://www.sothink.com"
width="10px" height="10px"
xml:space="preserve">
<g id="489" transform="matrix(1, 0, 0, 1, 4.55, 4.85)">
<radialGradient
id="RadialGradID_4198" gradientUnits="userSpaceOnUse" gradientTransform="matrix(0.0136108, 0.000473022, -0.000473022, 0.0136108, 0.55, -14.9)" spreadMethod ="pad" cx="0" cy="0" r="819.2" fx="0" fy="0" >
<stop  offset="0"  style="stop-color:#FBBD9D;stop-opacity:1" />
<stop  offset="1"  style="stop-color:#FEDEC1;stop-opacity:1" />
</radialGradient>
<path style="fill:url(#RadialGradID_4198) " d="M2.6,1.1Q1.15 2.35 0.7 4.2L0.55 4.8L0.45 4.85Q0.55 4.75 0.25 4.8L0.05 4.8L-0.2 3.9Q-0.5 3.05 -1.05 2.3L-1.8 1.4L-1.85 1.35Q-1.45 0.3 -1.45 -0.45Q-1.4 -1.8 -1.5 -1.45Q-3.05 -3.55 -3.9 -3.55Q-2.75 -4.8 0.3 -4.85Q3.3 -4.9 4.35 -4.2L3.1 -2.85Q2.2 -1.15 2.25 -0.65L2.7 1.05L2.6 1.1" />
<radialGradient
id="RadialGradID_4199" gradientUnits="userSpaceOnUse" gradientTransform="matrix(0.00996399, 0.00112915, -0.00112915, 0.00996399, 10.75, 8.2)" spreadMethod ="pad" cx="0" cy="0" r="819.2" fx="0" fy="0" >
<stop  offset="0"  style="stop-color:#FBBD9D;stop-opacity:1" />
<stop  offset="1"  style="stop-color:#FEDEC1;stop-opacity:1" />
</radialGradient>
<path style="fill:url(#RadialGradID_4199) " d="M0.55,4.8L0.7 4.2Q1.15 2.35 2.6 1.1L2.7 1.05L3.35 3.2Q3.7 4.6 2.55 4.55L0.55 4.8" />
<radialGradient
id="RadialGradID_4200" gradientUnits="userSpaceOnUse" gradientTransform="matrix(0.0104218, 0.00117493, -0.00117493, 0.0104218, -10.9, 9.3)" spreadMethod ="pad" cx="0" cy="0" r="819.2" fx="0" fy="0" >
<stop  offset="0"  style="stop-color:#FBBD9D;stop-opacity:1" />
<stop  offset="1"  style="stop-color:#FEDEC1;stop-opacity:1" />
</radialGradient>
<path style="fill:url(#RadialGradID_4200) " d="M-0.75,4.6L-2.15 4.6Q-2.6 4.5 -2.6 3.1L-1.85 1.35L-1.8 1.4L-1.05 2.3Q-0.5 3.05 -0.2 3.9L0.05 4.8L-0.75 4.6" />
<radialGradient
id="RadialGradID_4201" gradientUnits="userSpaceOnUse" gradientTransform="matrix(0.00953674, 0, 0, 0.0116882, -0.75, -2)" spreadMethod ="pad" cx="0" cy="0" r="819.2" fx="0" fy="0" >
<stop  offset="0"  style="stop-color:#F5A686;stop-opacity:0.411765" />
<stop  offset="1"  style="stop-color:#FAC8AB;stop-opacity:0.368627" />
</radialGradient>
<path style="fill:url(#RadialGradID_4201) " d="M3.15,-3.85L4.55 -4.45L4.6 -4.4Q4 -3.85 3.75 -3.3L3.5 -3.05Q3.1 -3 2.75 -1.95L2.55 -1.35L2.45 -1L2.35 -0.65L2.35 -0.4L2.35 -0.2L2.35 -0.1L2.95 1.4L3.5 3.35L3.25 4.1L3.25 4.05Q3.35 3 2.9 2.8L1.9 2.7Q1.3 2.85 1.25 1.25L1.15 -1.25Q1.1 -2.15 1.2 -2.45L1.9 -3.8L2.8 -4.05L2.6 -3.65L3.15 -3.85" />
<radialGradient
id="RadialGradID_4202" gradientUnits="userSpaceOnUse" gradientTransform="matrix(0.0101776, 0, 0, 0.00393677, 0.75, 4.7)" spreadMethod ="pad" cx="0" cy="0" r="819.2" fx="0" fy="0" >
<stop  offset="0"  style="stop-color:#F58B69;stop-opacity:1" />
<stop  offset="1"  style="stop-color:#FFDEC2;stop-opacity:0" />
</radialGradient>
<path style="fill:url(#RadialGradID_4202) " d="M-2.2,4.15L-2.25 4.15Q-1.7 3.8 -1.1 3.85L0.1 4.2L1.25 4L2.3 3.7L2.9 3.85Q3.2 3.95 3.2 4.3Q3.2 4.6 2.45 4.65L1.4 4.65L0.65 4.9L-0.65 4.7L-1.7 4.75L-2.35 4.65L-2.4 4.65L-2.4 4.45L-2.35 4.3L-2.3 4.2L-2.2 4.15" />
<radialGradient
id="RadialGradID_4203" gradientUnits="userSpaceOnUse" gradientTransform="matrix(0.00390625, 0, 0, 0.0100861, -2.15, -1.65)" spreadMethod ="pad" cx="0" cy="0" r="819.2" fx="0" fy="0" >
<stop  offset="0"  style="stop-color:#F5A686;stop-opacity:0.772549" />
<stop  offset="1"  style="stop-color:#FCD1B5;stop-opacity:0.215686" />
</radialGradient>
<path style="fill:url(#RadialGradID_4203) " d="M-2.3,4.2L-2.35 4.3L-2.4 4.45L-2.4 4.65Q-2.8 4.3 -2.75 3.65Q-2.75 2.9 -2.35 2.35L-1.8 0.75L-1.55 -0.35Q-1.5 -1.35 -1.6 -1.4Q-2.1 -2.3 -2.9 -3Q-3.75 -3.7 -4.55 -3.65L-3.85 -3.7L-3.55 -3.75L-3.3 -3.7L-2.45 -3.75L-1.2 -3.1L-0.7 -2.45L-0.6 -0.75L-0.7 1.55Q-0.75 2.6 -0.95 2.8L-1.75 3Q-2.45 3.15 -2.4 3.7L-2.25 4.15L-2.3 4.2" />
<path style="fill:#905045;fill-opacity:1" d="M-1.15,4.1L-0.5 4.3L-0.2 4.7L-0.95 4.5Q-1.45 4.65 -1.5 4.35Q-1.5 4.1 -1.15 4.1M2.55,4.2Q2.5 4.5 2 4.4L1.2 4.55L1.55 4.15Q1.8 3.95 2.2 3.95Q2.55 3.95 2.55 4.2" />
<radialGradient
id="RadialGradID_4204" gradientUnits="userSpaceOnUse" gradientTransform="matrix(0.000991821, 0.000106812, -9.15527e-005, 0.000808716, 0.35, 3.2)" spreadMethod ="pad" cx="0" cy="0" r="819.2" fx="0" fy="0" >
<stop  offset="0.313725"  style="stop-color:#FFFFFF;stop-opacity:0.662745" />
<stop  offset="1"  style="stop-color:#FFFFFF;stop-opacity:0" />
</radialGradient>
<path style="fill:url(#RadialGradID_4204) " d="M-0.15,2.8L0.45 2.75L0.95 2.9L1.15 3.3L0.9 3.6L0.3 3.7L-0.25 3.5L-0.45 3.15L-0.15 2.8" />
<radialGradient
id="RadialGradID_4205" gradientUnits="userSpaceOnUse" gradientTransform="matrix(0.000686646, 1.52588e-005, 0.000106812, 0.00262451, 0.45, 0.25)" spreadMethod ="pad" cx="0" cy="0" r="819.2" fx="0" fy="0" >
<stop  offset="0.313725"  style="stop-color:#FFFFFF;stop-opacity:0.431373" />
<stop  offset="1"  style="stop-color:#FFFFFF;stop-opacity:0" />
</radialGradient>
<path style="fill:url(#RadialGradID_4205) " d="M0.65,-1.25L0.85 0.25L0.75 1.8L0.7 2.1L0.75 2.15L0.55 2.4L0.3 2.1L0.25 2.05L0.15 1.75Q0 1.1 0 0.25L0.05 -1.3L0.3 -1.85L0.65 -1.25" />
</g>
</svg>
